X: 17330
T: Hie Mee Stiagh
R: slide
M: 12/8
K: Dmajor
|:F2G A2D|F2G A2D|F2G AFD|F2AA3|
F2G A2D|FGF E2G|F2D EDC|D3 D3:|
|:d3 D3|FGF E3|d3 D3|F3 A3|
d3 D3|FGF E2G|F2D EDC|D3 D3:|

